src/Resource_Files/fluent/document-new-epub3.svg

<svg clip-rule="evenodd" fill-rule="evenodd" stroke-linejoin="round" stroke-miterlimit="2" viewBox="0 0 16 16" xmlns="http://www.w3.org/2000/svg"><g fill="#1abc9c" fill-rule="nonzero"><path d="m16 8.003-4.5-.003c-.828 0-1.5-.672-1.5-1.5v-3.5h-4c-.552 0-1 .448-1 1v12c0 .552.448 1 1 1l3 .002v1l-3-.002c-1.105 0-2-.895-2-2v-12c0-1.105.895-2 2-2h4.586c.141 0 .281.02.414.058.242.07.465.2.646.381l3.915 3.915c.181.181.311.404.381.646l.001.005c.005.017.01.034.014.052.028.116.043.236.043.357zm-1.207-1.003-3.793-3.793v3.293c0 .276.224.5.5.5z" transform="translate(-2 -2)"/><path d="m12.069 13.27c-.164.145-.251.327-.288.457-.076.266-.352.42-.618.345-.265-.076-.42-.352-.344-.618.076-.269.248-.633.586-.933.348-.308.841-.521 1.501-.521 1.344 0 2.107.984 2.107 1.864 0 .352-.068.893-.431 1.353-.072.091-.153.175-.243.253.135.1.262.223.369.374.196.277.305.619.305 1.02 0 .73-.244 1.291-.678 1.659-.42.356-.951.477-1.429.477-.452 0-.894-.076-1.272-.317-.388-.247-.649-.628-.809-1.118-.086-.263.057-.545.319-.631.263-.086.545.057.631.32.107.327.248.492.396.586.157.099.385.16.735.16.326 0 .598-.084.781-.239.169-.143.326-.401.326-.897 0-.213-.055-.349-.121-.442-.07-.098-.174-.181-.316-.248-.298-.14-.677-.174-.937-.174-.276 0-.5-.224-.5-.5s.224-.5.5-.5c.705 0 1.011-.217 1.158-.403.165-.208.216-.486.216-.733 0-.321-.308-.864-1.107-.864-.43 0-.683.133-.837.27z" transform="matrix(1.28571 0 0 1.28571 -5.30243 -8.42857)"/></g></svg>

<?xml version="1.0" encoding="UTF-8" standalone="no"?>
<!DOCTYPE svg PUBLIC "-//W3C//DTD SVG 1.1//EN" "http://www.w3.org/Graphics/SVG/1.1/DTD/svg11.dtd">
<svg width="100%" height="100%" viewBox="0 0 16 16" version="1.1" xmlns="http://www.w3.org/2000/svg" xmlns:xlink="http://www.w3.org/1999/xlink" xml:space="preserve" xmlns:serif="http://www.serif.com/" style="fill-rule:evenodd;clip-rule:evenodd;stroke-linejoin:round;stroke-miterlimit:2;">
    <g transform="matrix(1,0,0,1,-2,-2)">
        <path d="M16,8.003L11.5,8C10.672,8 10,7.328 10,6.5L10,3L6,3C5.448,3 5,3.448 5,4L5,16C5,16.552 5.448,17 6,17L9,17.002L9,18.002L6,18C4.895,18 4,17.105 4,16L4,4C4,2.895 4.895,2 6,2L10.586,2C10.727,2 10.867,2.02 11,2.058C11.242,2.128 11.465,2.258 11.646,2.439L15.561,6.354C15.742,6.535 15.872,6.758 15.942,7L15.943,7.005C15.948,7.022 15.953,7.039 15.957,7.057C15.985,7.173 16,7.293 16,7.414L16,8.003ZM14.793,7L11,3.207L11,6.5C11,6.776 11.224,7 11.5,7L14.793,7Z" style="fill:rgb(26,188,156);fill-rule:nonzero;"/>
    </g>
    <g transform="matrix(1.28571,0,0,1.28571,-5.30243,-8.42857)">
        <path d="M12.069,13.27C11.905,13.415 11.818,13.597 11.781,13.727C11.705,13.993 11.429,14.147 11.163,14.072C10.898,13.996 10.743,13.72 10.819,13.454C10.895,13.185 11.067,12.821 11.405,12.521C11.753,12.213 12.246,12 12.906,12C14.25,12 15.013,12.984 15.013,13.864C15.013,14.216 14.945,14.757 14.582,15.217C14.51,15.308 14.429,15.392 14.339,15.47C14.474,15.57 14.601,15.693 14.708,15.844C14.904,16.121 15.013,16.463 15.013,16.864C15.013,17.594 14.769,18.155 14.335,18.523C13.915,18.879 13.384,19 12.906,19C12.454,19 12.012,18.924 11.634,18.683C11.246,18.436 10.985,18.055 10.825,17.565C10.739,17.302 10.882,17.02 11.144,16.934C11.407,16.848 11.689,16.991 11.775,17.254C11.882,17.581 12.023,17.746 12.171,17.84C12.328,17.939 12.556,18 12.906,18C13.232,18 13.504,17.916 13.687,17.761C13.856,17.618 14.013,17.36 14.013,16.864C14.013,16.651 13.958,16.515 13.892,16.422C13.822,16.324 13.718,16.241 13.576,16.174C13.278,16.034 12.899,16 12.639,16C12.363,16 12.139,15.776 12.139,15.5C12.139,15.224 12.363,15 12.639,15C13.344,15 13.65,14.783 13.797,14.597C13.962,14.389 14.013,14.111 14.013,13.864C14.013,13.543 13.705,13 12.906,13C12.476,13 12.223,13.133 12.069,13.27Z" style="fill:rgb(26,188,156);fill-rule:nonzero;"/>
    </g>
</svg>
